X:1
T:That Ye Might Have Life
T:That Ye Might Have Life
T:Isaac Hickman Meredith
T:Warren C. Taylor, 1922
T:Public Domain Courtesy of the Cyber Hymnal™
T:Public Domain Courtesy of the Cyber Hymnal™
C:Isaac Hickman Meredith
Z:Public Domain
Z:Courtesy of the Cyber Hymnal™
%%score ( 1 2 ) ( 3 4 )
L:1/8
Q:1/4=103
M:4/4
K:G
V:1 treble 
V:2 treble 
V:3 bass 
V:4 bass 
V:1
 DD | [GB]2 [GB][GB] [Gd]2 [GB][Gc] | [EB]2 [EA]2 E2 [EA][EG] | [CF]2 [CF][CE] [CD]2 [Cc]2 | %4
w: 1.~When you’re|long- ing at heart for a|lead- er true, And you’re|yearn- ing to find the|
w: 2.~When the|load of your sin on your|heart weighs sore, And in|grief for its shame you|
w: 3.~When the|sha- dows shall fall, and your|work is done, Do not|fear for the com- ing|
 [DB]6 [B,D][B,D] | [CE]2 [CE][DF] [EG]2 [DF][CE] | [B,D]2 [B,G]2 [DB]2 [DB][DB] | %7
w: way, Do you|heed how the Mas- ter is|call- ing you? He is|
w: fall, Tho’ your|guilt may be great, yet His|grace is more, And in|
w: day; With your|hand close in His, greet the|sett- ing sun, For He|
 [DA]2 [FA]A [^GB]2 [=G^c]2 | [Fd]6 ||"^Refrain" DD | !>![FA]2 [FA][FA] [FA]2 !>!D2 | !>![Dd]6 DD | %12
w: say- ing to you to-|day:||||
w: love you can hear Him|call:|“I am|come that ye might have|life, I am|
w: then to your heart will|say:||||
 !>![EB]2 [GB][GB] [GB]2 !>!D2 | !>![Dd]6 DD | [DG]2 [DG]2 [DG][DA][GB][DG] | %15
w: |||
w: come that ye might have|life, And that|ye might have it more a-|
w: |||
 [GB]2 [FA]2 [FA]2 DD | [FA]2 [FA]2 [FA][FB][Fc][FA] | [Ac]2 [GB]2 [GB]4 | !>![Gd]4 !>![=FG]4 | %19
w: ||||
w: bun- dant- ly, And that|ye might have it more a-|bun- dant- ly,|Life! Life!|
w: ||||
 !>![Ee]6 z2 | [Gd]3 [GB] [FB]2 [FA]2 | [DG]6 |] %22
w: |||
w: Life!|More a- bun- dant|life.”|
w: |||
V:2
 DD | x8 | x4 E2 x2 | x8 | x8 | x8 | x8 | x3 A x4 | x6 || DD | x6 D2 | x6 DD | x6 D2 | x6 DD | x8 | %15
 x6 DD | x8 | x8 | x8 | x8 | x8 | x6 |] %22
V:3
 [G,B,][G,B,] | [G,D]2 [G,D][G,D] [G,B,]2 [G,D][G,E] | [C,D]2 [C,C]2 [C,C]2 [C,A,][C,A,] | %3
w: ~ ~|~ ~ ~ ~ ~ ~|~ ~ ~ ~ ~|
 [D,A,]2 [D,F,][E,G,] [F,A,]2 [D,F,]2 | G,6 [G,,G,][G,,G,] | %5
w: ~ ~ ~ ~ ~|~ ~ ~|
 [C,G,]2 [C,G,][C,G,] [C,C]2 [C,G,][C,G,] | [G,,G,]2 [G,,D,]2 [G,,G,]2 G,G, | %7
w: ~ ~ ~ ~ ~ ~|~ ~ ~ ~ ~|
 [F,A,]2 [D,D][F,D] [E,D]2 A,2 | [D,A,]6 || [D,F,][D,F,] | [D,C]2 [D,C][D,C] [D,C]2 [D,F,]2 | %11
w: ~ ~ ~ ~ ~|~|~ ~|~ ~ ~ ~ ~|
 [D,F,]2 ([F,A,][G,B,]) [A,C]2 [D,C][D,C] | [G,B,]2 [G,D][G,D] [G,D]2 [G,B,]2 | %13
w: ~ have * life, ~ ~|~ ~ ~ ~ ~|
 [G,B,]2 ([B,D][A,C]) [G,B,]2 [A,C][A,C] | [G,B,]2 [G,B,]2 [G,B,][G,C][G,D][G,B,] | %15
w: ~ have * life, * *||
 [D,D]2 [D,D]2 [D,D]2 [D,F,][D,F,] | [D,C]2 [D,C]2 [D,C][D,B,][D,A,][D,D] | [G,D]2 [G,D]2 [G,D]4 | %18
w: |||
 !>![G,B,]4 !>![G,B,]4 | (!>!G,4 C2) z2 | [D,B,]3 [D,D] [D,D]2 [D,C]2 | [G,B,]6 |] %22
w: ||||
V:4
 x2 | x8 | x8 | x8 | G,6 x2 | x8 | x6 G,G, | x6 A,2 | x6 || x2 | x8 | x8 | x8 | x8 | x8 | x8 | x8 | %17
 x8 | x8 | C,6 x2 | x8 | x6 |] %22

